; generated by PrusaSlicer 2.9.2 on 2025-07-16 at 14:08:52 UTC

; 

; external perimeters extrusion width = 0.45mm
; perimeters extrusion width = 0.45mm
; infill extrusion width = 0.45mm
; solid infill extrusion width = 0.45mm
; top infill extrusion width = 0.40mm
; support material extrusion width = 0.40mm
; first layer extrusion width = 0.70mm

M190 S60 ; set bed temperature and wait for it to be reached
M104 S200 ; set temperature
;TYPE:Custom
G28 ; home all axes
G1 Z5 F5000 ; lift nozzle
M109 S200 ; set temperature and wait for it to be reached
G21 ; set units to millimeters
G90 ; use absolute coordinates
M82 ; use absolute distances for extrusion
G92 E0 ; reset extrusion distance
; Filament gcode
M107 ; disable fan
;LAYER_CHANGE
;Z:0.35
;HEIGHT:0.35
G1 E-2 F2400 ; retract
G92 E0 ; reset extrusion distance
G1 Z.35 F7800 ; lift
G1 X54.221 Y84.171 ; move to first layer point
G1 E2 F2400 ;  ; unretract
;TYPE:Skirt/Brim
;WIDTH:0.7
G1 F1800
G1 X55.138 Y83.674 E2.09484 ; skirt
G1 X56.952 Y82.877 E2.275 ; skirt
G1 X57.938 Y82.537 E2.36984 ; skirt
G1 X59.858 Y82.049 E2.54998 ; skirt
G1 X60.886 Y81.876 E2.64477 ; skirt
G1 X63.388 Y81.689 E2.87291 ; skirt
G1 X137.121 Y81.709 E9.57742 ; skirt
G1 X139.085 Y81.872 E9.75662 ; skirt
G1 X140.107 Y82.042 E9.85083 ; skirt
G1 X142.029 Y82.527 E10.03108 ; skirt
G1 X143.015 Y82.864 E10.12583 ; skirt
G1 X144.831 Y83.658 E10.30605 ; skirt
G1 X145.748 Y84.154 E10.40085 ; skirt
G1 X147.408 Y85.236 E10.58103 ; skirt
G1 X148.232 Y85.876 E10.6759 ; skirt
G1 X149.7 Y87.224 E10.85712 ; skirt
G1 X150.41 Y87.995 E10.95242 ; skirt
G1 X151.62 Y89.55 E11.13158 ; skirt
G1 X152.188 Y90.418 E11.2259 ; skirt
G1 X153.138 Y92.17 E11.40712 ; skirt
G1 X153.56 Y93.13 E11.50247 ; skirt
G1 X154.203 Y95.005 E11.68271 ; skirt
G1 X154.459 Y96.015 E11.77745 ; skirt
G1 X154.783 Y97.959 E11.95666 ; skirt
G1 X154.87 Y98.992 E12.05092 ; skirt
G1 X154.871 Y100.985 E12.23214 ; skirt
G1 X154.785 Y102.03 E12.32748 ; skirt
G1 X154.459 Y103.985 E12.5077 ; skirt
G1 X154.203 Y104.995 E12.60244 ; skirt
G1 X153.56 Y106.87 E12.78268 ; skirt
G1 X153.141 Y107.825 E12.87751 ; skirt
G1 X152.198 Y109.568 E13.05771 ; skirt
G1 X151.627 Y110.441 E13.15256 ; skirt
G1 X150.41 Y112.005 E13.33276 ; skirt
G1 X149.704 Y112.772 E13.42755 ; skirt
G1 X148.246 Y114.114 E13.60774 ; skirt
G1 X147.423 Y114.754 E13.70254 ; skirt
G1 X145.764 Y115.838 E13.88274 ; skirt
G1 X144.847 Y116.334 E13.97754 ; skirt
G1 X143.032 Y117.131 E14.15779 ; skirt
G1 X142.046 Y117.469 E14.25257 ; skirt
G1 X140.125 Y117.956 E14.43277 ; skirt
G1 X139.096 Y118.127 E14.52762 ; skirt
G1 X136.612 Y118.311 E14.75411 ; skirt
G1 X63.4 Y118.312 E21.41125 ; skirt
G1 X60.904 Y118.127 E21.63883 ; skirt
G1 X59.875 Y117.956 E21.73368 ; skirt
G1 X57.965 Y117.472 E21.91284 ; skirt
G1 X56.985 Y117.136 E22.00704 ; skirt
G1 X55.169 Y116.342 E22.18726 ; skirt
G1 X54.252 Y115.846 E22.28206 ; skirt
G1 X52.592 Y114.764 E22.46224 ; skirt
G1 X51.768 Y114.124 E22.55711 ; skirt
G1 X50.309 Y112.784 E22.73724 ; skirt
G1 X49.602 Y112.017 E22.83209 ; skirt
G1 X48.383 Y110.454 E23.01233 ; skirt
G1 X47.812 Y109.582 E23.10711 ; skirt
G1 X46.862 Y107.83 E23.28833 ; skirt
G1 X46.44 Y106.87 E23.38368 ; skirt
G1 X45.801 Y105.006 E23.56286 ; skirt
G1 X45.546 Y104.002 E23.65705 ; skirt
G1 X45.218 Y102.047 E23.8373 ; skirt
G1 X45.13 Y101.008 E23.93211 ; skirt
G1 X45.129 Y99.015 E24.11333 ; skirt
G1 X45.215 Y97.97 E24.20867 ; skirt
G1 X45.539 Y96.027 E24.38779 ; skirt
G1 X45.793 Y95.022 E24.48205 ; skirt
G1 X46.435 Y93.147 E24.66226 ; skirt
G1 X46.852 Y92.191 E24.7571 ; skirt
G1 X47.8 Y90.438 E24.93831 ; skirt
G1 X48.373 Y89.559 E25.03372 ; skirt
G1 X49.59 Y87.995 E25.21392 ; skirt
G1 X50.296 Y87.228 E25.30871 ; skirt
G1 X51.746 Y85.894 E25.48787 ; skirt
G1 X52.563 Y85.257 E25.58207 ; skirt
G1 X54.171 Y84.204 E25.75685 ; skirt
G1 E23.75685 F2400 ; retract
G92 E0 ; reset extrusion distance
G92 E0 ; reset extrusion distance
G1 X144.828 Y106.004 F7800 ; move to first perimeter point
G1 E2 F2400 ;  ; unretract
;TYPE:Perimeter
;WIDTH:0.736641
G1 F1800
G1 X144.805 Y106.016 E2.0025 ; perimeter
;WIDTH:0.709074
G1 X144.369 Y106.119 E2.04383 ; perimeter
;WIDTH:0.7
G1 X55.631 Y106.119 E10.11273 ; perimeter
;WIDTH:0.709075
G1 X55.195 Y106.016 E10.15406 ; perimeter
;WIDTH:0.736642
G1 X55.088 Y105.958 E10.16578 ; perimeter
;WIDTH:0.76421
G1 X54.98 Y105.9 E10.17807 ; perimeter
G1 X54.779 Y105.643 E10.21079 ; perimeter
;WIDTH:0.761143
G1 X54.476 Y105.137 E10.26967 ; perimeter
;WIDTH:0.744696
G1 X54.422 Y105.036 E10.28083 ; perimeter
;WIDTH:0.776736
G1 X53.983 Y104.123 E10.38426 ; perimeter
G1 X53.745 Y103.571 E10.44563 ; perimeter
;WIDTH:0.777374
G1 X53.434 Y102.52 E10.55763 ; perimeter
G1 X53.274 Y101.855 E10.62752 ; perimeter
;WIDTH:0.777697
G1 X53.156 Y100.847 E10.73128 ; perimeter
G1 X53.106 Y100.083 E10.80955 ; perimeter
G1 X53.156 Y99.153 E10.90477 ; perimeter
G1 X53.246 Y98.309 E10.99155 ; perimeter
;WIDTH:0.777374
G1 X53.434 Y97.48 E11.07842 ; perimeter
G1 X53.689 Y96.585 E11.17352 ; perimeter
;WIDTH:0.776736
G1 X53.983 Y95.877 E11.25179 ; perimeter
G1 X54.422 Y94.964 E11.35522 ; perimeter
;WIDTH:0.761143
G1 X54.87 Y94.226 E11.4414 ; perimeter
;WIDTH:0.75433
G1 X55.033 Y94.107 E11.46135 ; perimeter
;WIDTH:0.727165
G1 X55.197 Y93.988 E11.48058 ; perimeter
;WIDTH:0.7
G1 X55.631 Y93.881 E11.52123 ; perimeter
G1 X144.369 Y93.881 E19.59013 ; perimeter
G1 X144.803 Y93.988 E19.63078 ; perimeter
;WIDTH:0.727164
G1 X144.967 Y94.107 E19.65001 ; perimeter
;WIDTH:0.754329
G1 X145.13 Y94.226 E19.66996 ; perimeter
G1 X145.524 Y94.863 E19.74399 ; perimeter
;WIDTH:0.744694
G1 X145.578 Y94.964 E19.75515 ; perimeter
;WIDTH:0.776734
G1 X146.017 Y95.877 E19.85858 ; perimeter
G1 X146.255 Y96.429 E19.91995 ; perimeter
;WIDTH:0.777374
G1 X146.566 Y97.48 E20.03195 ; perimeter
G1 X146.726 Y98.145 E20.10184 ; perimeter
;WIDTH:0.777695
G1 X146.844 Y99.153 E20.2056 ; perimeter
G1 X146.894 Y99.917 E20.28387 ; perimeter
G1 X146.844 Y100.847 E20.37909 ; perimeter
G1 X146.754 Y101.691 E20.46587 ; perimeter
;WIDTH:0.777374
G1 X146.566 Y102.52 E20.55274 ; perimeter
G1 X146.311 Y103.415 E20.64784 ; perimeter
;WIDTH:0.776734
G1 X146.017 Y104.123 E20.72611 ; perimeter
G1 X145.578 Y105.036 E20.82954 ; perimeter
;WIDTH:0.761141
G1 X145.221 Y105.643 E20.89984 ; perimeter
;WIDTH:0.764209
G1 X145.02 Y105.9 E20.93256 ; perimeter
G1 X144.912 Y105.958 E20.94485 ; perimeter
;WIDTH:0.736641
G1 X144.88 Y105.975 E20.94834 ; perimeter
G1 X144.525 Y105.446 F7800 ; move to first perimeter point
;TYPE:External perimeter
;WIDTH:0.7
G1 F1800
G1 X144.514 Y105.458 E20.94982 ; perimeter
G1 X144.117 Y105.494 E20.98607 ; perimeter
G1 X55.631 Y105.494 E29.03206 ; perimeter
G1 X55.421 Y105.413 E29.05253 ; perimeter
G1 X55.027 Y104.797 E29.11902 ; perimeter
G1 X54.333 Y103.3 E29.26906 ; perimeter
G1 X53.9 Y101.689 E29.42075 ; perimeter
G1 X53.751 Y100.027 E29.57248 ; perimeter
G1 X53.891 Y98.365 E29.72414 ; perimeter
G1 X54.314 Y96.751 E29.87586 ; perimeter
G1 X54.585 Y96.155 E29.93539 ; perimeter
G1 X55.009 Y95.236 E30.02742 ; perimeter
G1 X55.337 Y94.701 E30.08448 ; perimeter
G1 X55.486 Y94.542 E30.10429 ; perimeter
G1 X55.883 Y94.506 E30.14054 ; perimeter
G1 X144.369 Y94.506 E38.18653 ; perimeter
G1 X144.514 Y94.542 E38.20012 ; perimeter
G1 X144.663 Y94.701 E38.21993 ; perimeter
G1 X144.973 Y95.203 E38.27358 ; perimeter
G1 X145.667 Y96.7 E38.42362 ; perimeter
G1 X146.1 Y98.311 E38.57531 ; perimeter
G1 X146.249 Y99.973 E38.72704 ; perimeter
G1 X146.109 Y101.635 E38.8787 ; perimeter
G1 X145.686 Y103.249 E39.03042 ; perimeter
G1 X144.991 Y104.764 E39.18198 ; perimeter
G1 X144.663 Y105.299 E39.23904 ; perimeter
G1 X144.566 Y105.403 E39.25197 ; perimeter
G1 X144.174 Y105.484 F7800 ; move inwards before travel
G1 E37.25197 F2400 ; retract
G92 E0 ; reset extrusion distance
G1 X144.504 Y93.29 F7800 ; move to first perimeter point
G1 E2 F2400 ;  ; unretract
;TYPE:Perimeter
G1 F1800
G1 X144.369 Y93.256 E2.01266 ; perimeter
G1 X55.883 Y93.256 E10.05865 ; perimeter
G1 X55.496 Y93.29 E10.09398 ; perimeter
G1 X55.752 Y92.96 E10.13196 ; perimeter
G1 X57.015 Y91.797 E10.28808 ; perimeter
G1 X58.453 Y90.858 E10.44425 ; perimeter
G1 X60.025 Y90.168 E10.60035 ; perimeter
G1 X61.689 Y89.747 E10.75642 ; perimeter
G1 X63.466 Y89.6 E10.91855 ; perimeter
G1 X136.534 Y89.6 E17.56259 ; perimeter
G1 X138.3 Y89.746 E17.72372 ; perimeter
G1 X139.976 Y90.169 E17.8809 ; perimeter
G1 X141.547 Y90.858 E18.03688 ; perimeter
G1 X142.985 Y91.797 E18.19305 ; perimeter
G1 X144.237 Y92.95 E18.34781 ; perimeter
G1 X144.467 Y93.243 E18.38168 ; perimeter
G1 E16.38168 F2400 ; retract
G92 E0 ; reset extrusion distance
G1 X144.504 Y106.71 F7800 ; move to first perimeter point
G1 E2 F2400 ;  ; unretract
G1 F1800
G1 X144.248 Y107.04 E2.03798 ; perimeter
G1 X142.985 Y108.203 E2.1941 ; perimeter
G1 X141.547 Y109.142 E2.35027 ; perimeter
G1 X139.975 Y109.832 E2.50637 ; perimeter
G1 X138.311 Y110.253 E2.66244 ; perimeter
G1 X136.534 Y110.4 E2.82457 ; perimeter
G1 X63.466 Y110.4 E9.46861 ; perimeter
G1 X61.689 Y110.253 E9.63074 ; perimeter
G1 X60.025 Y109.832 E9.78681 ; perimeter
G1 X58.453 Y109.142 E9.94291 ; perimeter
G1 X57.015 Y108.203 E10.09908 ; perimeter
G1 X55.763 Y107.05 E10.25384 ; perimeter
G1 X55.496 Y106.71 E10.29315 ; perimeter
G1 X55.631 Y106.744 E10.30581 ; perimeter
G1 X144.117 Y106.744 E18.3518 ; perimeter
G1 X144.445 Y106.715 E18.38174 ; perimeter
G1 E16.38174 F2400 ; retract
G92 E0 ; reset extrusion distance
G1 X138.48 Y89.147 F7800 ; move to first perimeter point
G1 E2 F2400 ;  ; unretract
G1 F1800
G1 X140.179 Y89.576 E2.15934 ; perimeter
G1 X141.846 Y90.307 E2.32485 ; perimeter
G1 X143.37 Y91.302 E2.49035 ; perimeter
G1 X144.709 Y92.535 E2.65586 ; perimeter
G1 X145.34 Y93.345 E2.74922 ; perimeter
;WIDTH:0.730571
G1 X145.577 Y93.679 E2.78828 ; perimeter
;WIDTH:0.761142
G1 X145.815 Y94.013 E2.82922 ; perimeter
G1 X146.177 Y94.664 E2.90358 ; perimeter
;WIDTH:0.776734
G1 X146.644 Y95.563 E3.00701 ; perimeter
G1 X146.951 Y96.39 E3.09707 ; perimeter
;WIDTH:0.777374
G1 X147.252 Y97.333 E3.19822 ; perimeter
G1 X147.417 Y98.225 E3.29092 ; perimeter
;WIDTH:0.777695
G1 X147.545 Y99.122 E3.38355 ; perimeter
;WIDTH:0.777694
G1 X147.562 Y100.112 E3.48478 ; perimeter
G1 X147.54 Y100.936 E3.56905 ; perimeter
G1 X147.38 Y101.996 E3.67865 ; perimeter
;WIDTH:0.777374
G1 X147.237 Y102.724 E3.75446 ; perimeter
G1 X146.877 Y103.821 E3.87244 ; perimeter
;WIDTH:0.776734
G1 X146.644 Y104.437 E3.93968 ; perimeter
G1 X146.177 Y105.336 E4.04311 ; perimeter
;WIDTH:0.744694
G1 X146.103 Y105.472 E4.0582 ; perimeter
;WIDTH:0.754328
G1 X145.666 Y106.191 E4.14136 ; perimeter
G1 X145.336 Y106.652 E4.19739 ; perimeter
;WIDTH:0.709074
G1 X144.709 Y107.465 E4.2921 ; perimeter
;WIDTH:0.7
G1 X143.37 Y108.698 E4.45761 ; perimeter
G1 X141.846 Y109.693 E4.62311 ; perimeter
G1 X140.179 Y110.425 E4.78866 ; perimeter
G1 X138.414 Y110.871 E4.9542 ; perimeter
G1 X136.56 Y111.025 E5.12336 ; perimeter
G1 X63.44 Y111.025 E11.77213 ; perimeter
G1 X61.586 Y110.871 E11.94129 ; perimeter
G1 X59.821 Y110.425 E12.10683 ; perimeter
G1 X58.154 Y109.693 E12.27238 ; perimeter
G1 X56.63 Y108.698 E12.43788 ; perimeter
G1 X55.34 Y107.51 E12.59734 ; perimeter
G1 X55.096 Y107.214 E12.63222 ; perimeter
;WIDTH:0.709075
G1 X54.664 Y106.652 E12.69761 ; perimeter
;WIDTH:0.735109
G1 X54.425 Y106.319 E12.73698 ; perimeter
;WIDTH:0.761143
G1 X54.185 Y105.987 E12.77788 ; perimeter
G1 X53.823 Y105.336 E12.85224 ; perimeter
;WIDTH:0.776736
G1 X53.356 Y104.437 E12.95567 ; perimeter
G1 X53.049 Y103.61 E13.04573 ; perimeter
;WIDTH:0.777374
G1 X52.748 Y102.667 E13.14688 ; perimeter
G1 X52.583 Y101.775 E13.23958 ; perimeter
;WIDTH:0.777696
G1 X52.455 Y100.878 E13.33221 ; perimeter
G1 X52.438 Y99.888 E13.43344 ; perimeter
G1 X52.46 Y99.064 E13.51771 ; perimeter
G1 X52.62 Y98.004 E13.62731 ; perimeter
;WIDTH:0.777374
G1 X52.763 Y97.276 E13.70312 ; perimeter
G1 X53.123 Y96.179 E13.8211 ; perimeter
;WIDTH:0.776736
G1 X53.356 Y95.563 E13.88834 ; perimeter
G1 X53.823 Y94.664 E13.99177 ; perimeter
;WIDTH:0.744696
G1 X53.897 Y94.528 E14.00686 ; perimeter
;WIDTH:0.75433
G1 X54.334 Y93.809 E14.09002 ; perimeter
G1 X54.497 Y93.577 E14.11804 ; perimeter
;WIDTH:0.727165
G1 X54.66 Y93.345 E14.14494 ; perimeter
;WIDTH:0.7
G1 X55.291 Y92.535 E14.2383 ; perimeter
G1 X56.63 Y91.302 E14.40381 ; perimeter
G1 X58.154 Y90.307 E14.56931 ; perimeter
G1 X59.821 Y89.575 E14.73486 ; perimeter
G1 X61.586 Y89.129 E14.9004 ; perimeter
G1 X63.44 Y88.975 E15.06956 ; perimeter
G1 X136.56 Y88.975 E21.71833 ; perimeter
G1 X138.403 Y89.128 E21.88649 ; perimeter
G1 X138.422 Y89.132 E21.88826 ; perimeter
G1 X138.534 Y88.516 F7800 ; move to first perimeter point
;TYPE:External perimeter
G1 F1800
G1 X140.383 Y88.982 E22.06165 ; perimeter
G1 X142.144 Y89.755 E22.23652 ; perimeter
G1 X143.755 Y90.807 E22.41147 ; perimeter
G1 X145.17 Y92.11 E22.58638 ; perimeter
G1 X146.352 Y93.629 E22.76139 ; perimeter
G1 X147.268 Y95.321 E22.93634 ; perimeter
G1 X147.892 Y97.14 E23.1112 ; perimeter
G1 X148.209 Y99.122 E23.29371 ; perimeter
G1 X148.209 Y100.962 E23.46102 ; perimeter
G1 X147.892 Y102.86 E23.63599 ; perimeter
G1 X147.268 Y104.679 E23.81085 ; perimeter
G1 X146.352 Y106.371 E23.9858 ; perimeter
G1 X145.17 Y107.89 E24.16081 ; perimeter
G1 X143.755 Y109.193 E24.33572 ; perimeter
G1 X142.144 Y110.245 E24.51067 ; perimeter
G1 X140.382 Y111.018 E24.68563 ; perimeter
G1 X138.517 Y111.49 E24.86056 ; perimeter
G1 X136.586 Y111.65 E25.03675 ; perimeter
G1 X63.414 Y111.65 E31.69025 ; perimeter
G1 X61.483 Y111.49 E31.86644 ; perimeter
G1 X59.618 Y111.018 E32.04137 ; perimeter
G1 X57.856 Y110.245 E32.21633 ; perimeter
G1 X56.245 Y109.193 E32.39128 ; perimeter
G1 X54.83 Y107.89 E32.56619 ; perimeter
G1 X53.648 Y106.371 E32.7412 ; perimeter
G1 X52.732 Y104.679 E32.91615 ; perimeter
G1 X52.108 Y102.86 E33.09101 ; perimeter
G1 X51.791 Y100.962 E33.26598 ; perimeter
G1 X51.791 Y99.038 E33.44093 ; perimeter
G1 X52.108 Y97.14 E33.6159 ; perimeter
G1 X52.732 Y95.321 E33.79076 ; perimeter
G1 X53.648 Y93.629 E33.96571 ; perimeter
G1 X54.83 Y92.11 E34.14072 ; perimeter
G1 X56.245 Y90.807 E34.31563 ; perimeter
G1 X57.856 Y89.755 E34.49058 ; perimeter
G1 X59.618 Y88.982 E34.66554 ; perimeter
G1 X61.483 Y88.51 E34.84047 ; perimeter
G1 X63.414 Y88.35 E35.01666 ; perimeter
G1 X136.586 Y88.35 E41.67016 ; perimeter
G1 X138.475 Y88.507 E41.84252 ; perimeter
G1 X138.864 Y88.6 F7800 ; move inwards before travel
G1 E39.84252 F2400 ; retract
G92 E0 ; reset extrusion distance
G1 X140.205 Y90.474 F7800 ; move to first infill point
G1 E2 F2400 ;  ; unretract
;TYPE:Solid infill
;WIDTH:0.706072
G1 F1800
G1 X142.519 Y92.788 E2.30046 ; infill
G1 X141.626 Y92.788 E2.38245 ; infill
G1 X139.327 Y90.488 E2.68102 ; infill
G1 X138.15 Y90.204 E2.79219 ; infill
G1 X140.734 Y92.788 E3.12771 ; infill
G1 X139.842 Y92.788 E3.20961 ; infill
G1 X137.181 Y90.127 E3.55512 ; infill
G1 X136.452 Y90.068 E3.62227 ; infill
G1 X136.23 Y90.068 E3.64265 ; infill
G1 X138.949 Y92.788 E3.99576 ; infill
G1 X138.057 Y92.788 E4.07766 ; infill
G1 X135.338 Y90.068 E4.43077 ; infill
G1 X134.445 Y90.068 E4.51276 ; infill
G1 X137.165 Y92.788 E4.86593 ; infill
G1 X136.272 Y92.788 E4.94792 ; infill
G1 X133.553 Y90.068 E5.30103 ; infill
G1 X132.661 Y90.068 E5.38293 ; infill
G1 X135.38 Y92.788 E5.73604 ; infill
G1 X134.488 Y92.788 E5.81794 ; infill
G1 X131.768 Y90.068 E6.17111 ; infill
G1 X130.876 Y90.068 E6.25301 ; infill
G1 X133.595 Y92.788 E6.60612 ; infill
G1 X132.703 Y92.788 E6.68802 ; infill
G1 X129.984 Y90.068 E7.04113 ; infill
G1 X129.091 Y90.068 E7.12312 ; infill
G1 X131.811 Y92.788 E7.47629 ; infill
G1 X130.918 Y92.788 E7.55828 ; infill
G1 X128.199 Y90.068 E7.91139 ; infill
G1 X127.307 Y90.068 E7.99329 ; infill
G1 X130.026 Y92.788 E8.3464 ; infill
G1 X129.134 Y92.788 E8.4283 ; infill
G1 X126.414 Y90.068 E8.78147 ; infill
G1 X125.522 Y90.068 E8.86337 ; infill
G1 X128.242 Y92.788 E9.21654 ; infill
G1 X127.349 Y92.788 E9.29853 ; infill
G1 X124.63 Y90.068 E9.65164 ; infill
G1 X123.738 Y90.068 E9.73354 ; infill
G1 X126.457 Y92.788 E10.08665 ; infill
